;Generated with Cura_SteamEngine 13.12
; Start code sequence from s3g/makerbot_driver/profiles/Replicator2.json
; Sliced from "Mr. Jaws" by Mahoney
; Source: http://www.thingiverse.com/thing:14702

;; begin_print
M136 (enable build)
M73 P0

;; homing
G162 X Y F2000(home XY axes maximum)
G161 Z F900(home Z axis minimum)
G92 X0 Y0 Z-5 A0 B0 (set Z to -5)
G1 Z0.0 F900(move Z to '0')
G161 Z F100(home Z axis minimum)
M132 X Y Z A B (Recall stored home offsets for XYZAB axis)

;; start_position
G92 X152 Y72 Z0 A0 B0
G1 X-112 Y-73 Z150 F3300.0 (move to waiting position)
G130 X20 Y20 A20 B20 (Lower stepper Vrefs while heating)

;; heat_tool
M135 T0
M104 S230 T0 ;; 230C
M133 T0

;; end_start_sequence
G130 X127 Y127 A127 B127 (Set Stepper motor Vref to defaults)
;Layer count: 41
;LAYER:0
M127 T0
G0 F9000 X-4.04 Y-10.44 Z0.30
;TYPE:SKIRT
G1 F2700 E0.00000
G1 F1200 X9.38 Y-19.13 E0.79740
G1 X16.41 Y-13.16 E1.25733
G1 X14.94 Y-9.80 E1.44034
G1 X23.33 Y-9.24 E1.86001
G1 X30.84 Y-15.54 E2.34918
G1 X38.00 Y-12.21 E2.74339
G1 X38.00 Y-5.12 E3.09667
G1 X35.57 Y-0.49 E3.35794
G1 X38.00 Y4.39 E3.62996
G1 X38.00 Y11.17 E3.96832
G1 X30.80 Y14.50 E4.36398
G1 X23.69 Y8.44 E4.82991
G1 X16.16 Y9.99 E5.21347
G1 X10.22 Y21.56 E5.86262
G1 X-0.31 Y11.71 E6.58201
G1 X-35.91 Y11.71 E8.35790
G1 X-39.11 Y4.15 E8.76754
G1 X-33.91 Y-1.24 E9.14122
G1 X-35.45 Y-2.93 E9.25554
G1 X-27.68 Y-10.44 E9.79442
G1 X-4.04 Y-10.44 E10.97388
G1 F2700 E6.47388
G0 F9000 X-2.03 Y-3.64
;TYPE:WALL-INNER
G1 F2700 E10.97388
G1 F1200 X7.53 Y-9.83 E11.54203
G1 X4.84 Y-3.67 E11.87758
G1 X25.61 Y-2.27 E12.91604
G1 X31.20 Y-6.97 E13.28045
G1 X31.20 Y-6.80 E13.28879
G1 X27.93 Y-0.57 E13.63999
G1 X31.13 Y5.84 E13.99754
G1 X25.57 Y1.12 E14.36150
G1 X11.60 Y3.98 E15.07315
G1 X8.28 Y10.44 E15.43535
G1 X2.38 Y4.91 E15.83908
G1 X-30.39 Y4.91 E17.47363
G1 X-26.25 Y0.62 E17.77082
G1 X-25.00 Y1.93 E17.86119
G1 X-23.70 Y0.65 E17.95221
G1 X-22.52 Y1.96 E18.03999
G1 X-21.25 Y0.64 E18.13110
G1 X-20.03 Y1.94 E18.22010
G1 X-18.72 Y0.64 E18.31172
G1 X-17.52 Y1.95 E18.40028
G1 X-16.25 Y0.64 E18.49127
G1 X-15.03 Y1.94 E18.58007
G1 X-13.75 Y0.66 E18.67049
G1 X-12.53 Y1.93 E18.75842
G1 X-9.43 Y-1.10 E18.97483
G1 X-11.82 Y-3.52 E19.14452
G1 X-13.10 Y-2.13 E19.23862
G1 X-14.28 Y-3.58 E19.33214
G1 X-15.60 Y-2.13 E19.42948
G1 X-16.77 Y-3.58 E19.52255
G1 X-18.07 Y-2.15 E19.61887
G1 X-19.28 Y-3.55 E19.71165
G1 X-20.60 Y-2.14 E19.80812
G1 X-21.81 Y-3.57 E19.90146
G1 X-23.05 Y-2.19 E19.99385
G1 X-24.27 Y-3.52 E20.08418
G1 X-25.60 Y-2.20 E20.17766
G1 X-25.98 Y-2.62 E20.20602
G1 X-24.93 Y-3.64 E20.27899
G1 X-2.03 Y-3.64 E21.42167
G0 F9000 X-7.16 Y1.93
G1 F1200 X-7.53 Y1.67 E21.44411
G1 X-7.95 Y1.53 E21.46654
G1 X-8.40 Y1.50 E21.48875
G1 X-8.83 Y1.58 E21.51091
G1 X-9.23 Y1.78 E21.53309
G1 X-9.56 Y2.07 E21.55515
G1 X-9.81 Y2.44 E21.57733
G1 X-9.95 Y2.86 E21.59931
G1 X-9.99 Y3.30 E21.62158
G1 X-9.90 Y3.74 E21.64382
G1 X-9.71 Y4.13 E21.66586
G1 X-9.42 Y4.47 E21.68766
G1 X-9.05 Y4.72 E21.71021
G1 X-8.63 Y4.86 E21.73224
G1 X-8.19 Y4.89 E21.75450
G1 X-7.75 Y4.81 E21.77681
G1 X-7.35 Y4.61 E21.79906
G1 X-7.01 Y4.32 E21.82098
G1 X-6.77 Y3.96 E21.84283
G1 X-6.62 Y3.54 E21.86515
G1 X-6.59 Y3.10 E21.88732
G1 X-6.68 Y2.66 E21.90960
G1 X-6.87 Y2.26 E21.93167
G1 X-7.16 Y1.93 E21.95341
G0 F9000 X-7.43 Y2.23
;TYPE:WALL-OUTER
G1 F1200 X-7.71 Y2.04 E21.97055
G1 X-8.03 Y1.92 E21.98757
G1 X-8.37 Y1.90 E22.00457
G1 X-8.70 Y1.97 E22.02150
G1 X-9.01 Y2.12 E22.03841
G1 X-9.26 Y2.34 E22.05517
G1 X-9.45 Y2.62 E22.07209
G1 X-9.56 Y2.94 E22.08890
G1 X-9.59 Y3.28 E22.10586
G1 X-9.52 Y3.61 E22.12281
G1 X-9.37 Y3.91 E22.13970
G1 X-9.15 Y4.16 E22.15629
G1 X-8.87 Y4.36 E22.17349
G1 X-8.55 Y4.47 E22.19029
G1 X-8.21 Y4.49 E22.20736
G1 X-7.88 Y4.43 E22.22428
G1 X-7.57 Y4.28 E22.24128
G1 X-7.32 Y4.06 E22.25797
G1 X-7.13 Y3.78 E22.27458
G1 X-7.02 Y3.46 E22.29173
G1 X-6.99 Y3.12 E22.30860
G1 X-7.06 Y2.79 E22.32559
G1 X-7.21 Y2.48 E22.34239
G1 X-7.43 Y2.23 E22.35901
G0 F9000 X-7.20 Y2.04
G0 X-9.78 Y-1.31
G0 X-10.00 Y-1.11
G1 F1200 X-11.81 Y-2.94 E22.48764
G1 X-13.11 Y-1.51 E22.58376
G1 X-14.30 Y-2.96 E22.67720
G1 X-15.61 Y-1.52 E22.77468
G1 X-16.79 Y-2.96 E22.86772
G1 X-18.07 Y-1.54 E22.96326
G1 X-19.29 Y-2.96 E23.05646
G1 X-20.62 Y-1.54 E23.15314
G1 X-21.82 Y-2.96 E23.24595
G1 X-23.05 Y-1.59 E23.33750
G1 X-24.29 Y-2.95 E23.42902
G1 X-25.61 Y-1.62 E23.52258
G1 X-26.54 Y-2.64 E23.59120
G1 X-25.09 Y-4.04 E23.69158
G1 X-2.14 Y-4.04 E24.83646
G1 X8.43 Y-10.89 E25.46508
G1 X5.43 Y-4.03 E25.83863
G1 X25.48 Y-2.68 E26.84069
G1 X31.60 Y-7.83 E27.23987
G1 X31.60 Y-6.70 E27.29595
G1 X28.38 Y-0.56 E27.64187
G1 X31.60 Y5.90 E28.00209
G1 X31.60 Y6.77 E28.04580
G1 X25.46 Y1.55 E28.44805
G1 X11.87 Y4.33 E29.14039
G1 X8.40 Y11.09 E29.51951
G1 X2.22 Y5.31 E29.94184
G1 X-31.33 Y5.31 E31.61550
G1 X-26.25 Y0.05 E31.98047
G1 X-24.99 Y1.36 E32.07133
G1 X-23.68 Y0.07 E32.16295
G1 X-22.51 Y1.37 E32.25017
G1 X-21.25 Y0.06 E32.34071
G1 X-20.02 Y1.37 E32.43024
G1 X-18.71 Y0.07 E32.52225
G1 X-17.52 Y1.37 E32.61046
G1 X-16.25 Y0.07 E32.70113
G1 X-15.03 Y1.37 E32.79025
G1 X-13.75 Y0.09 E32.88045
G1 X-12.52 Y1.36 E32.96863
G1 X-10.00 Y-1.11 E33.14486
G0 F9000 X-9.55 Y-0.78
;TYPE:FILL
G1 F1200 X-4.00 Y4.77 E33.53651
G0 F9000 X-4.57 Y4.77
G1 F1200 X-6.50 Y2.84 E33.67268
G0 F9000 X-6.47 Y3.42
G1 F1200 X-5.13 Y4.77 E33.76733
G0 F9000 X-5.70 Y4.77
G1 F1200 X-6.59 Y3.87 E33.83034
G0 F9000 X-6.79 Y4.24
G1 F1200 X-6.55 Y4.77 E33.86744
G1 X-7.05 Y4.54 E33.89496
G0 F9000 X-8.19 Y4.89
G0 X-9.66 Y4.77
G1 F1200 X-12.41 Y2.01 E34.08941
G0 F9000 X-12.13 Y1.73
G1 F1200 X-9.99 Y3.87 E34.24015
G0 F9000 X-10.12 Y3.17
G1 F1200 X-11.84 Y1.45 E34.36172
G0 F9000 X-11.56 Y1.17
G1 F1200 X-10.04 Y2.68 E34.46840
G0 F9000 X-9.88 Y2.29
G1 F1200 X-11.27 Y0.89 E34.56668
G0 F9000 X-10.98 Y0.61
G1 F1200 X-9.64 Y1.95 E34.66123
G0 F9000 X-9.34 Y1.69
G1 F1200 X-10.70 Y0.33 E34.75690
G0 F9000 X-10.41 Y0.05
G1 F1200 X-8.97 Y1.50 E34.85864
G0 F9000 X-8.52 Y1.38
G1 F1200 X-10.12 Y-0.22 E34.97195
G0 F9000 X-9.84 Y-0.50
G1 F1200 X-7.95 Y1.39 E35.10548
G0 F9000 X-9.27 Y-1.06
G1 F1200 X-3.43 Y4.77 E35.51685
G0 F9000 X-2.87 Y4.77
G1 F1200 X-11.13 Y-3.49 E36.09975
G0 F9000 X-10.57 Y-3.49
G1 F1200 X-2.30 Y4.77 E36.68268
G0 F9000 X-1.74 Y4.77
G1 F1200 X-10.00 Y-3.49 E37.26560
G0 F9000 X-9.44 Y-3.49
G1 F1200 X-1.17 Y4.77 E37.84850
G0 F9000 X-0.61 Y4.77
G1 F1200 X-8.87 Y-3.49 E38.43139
G0 F9000 X-8.30 Y-3.49
G1 F1200 X-0.04 Y4.77 E39.01432
G0 F9000 X0.52 Y4.77
G1 F1200 X-7.74 Y-3.49 E39.59718
G0 F9000 X-7.17 Y-3.49
G1 F1200 X1.09 Y4.77 E40.18004
G0 F9000 X1.65 Y4.77
G1 F1200 X-6.61 Y-3.49 E40.76293
G0 F9000 X-6.04 Y-3.49
G1 F1200 X2.22 Y4.77 E41.34582
G0 F9000 X8.00 Y9.98
G1 F1200 X-5.47 Y-3.49 E42.29649
G0 F9000 X-4.91 Y-3.49
G1 F1200 X8.43 Y9.84 E43.23759
G0 F9000 X8.62 Y9.47
G1 F1200 X-4.34 Y-3.49 E44.15234
G0 F9000 X-3.78 Y-3.49
G1 F1200 X8.81 Y9.10 E45.04070
G0 F9000 X9.01 Y8.72
G1 F1200 X-3.21 Y-3.49 E45.90271
G0 F9000 X-2.65 Y-3.49
G1 F1200 X9.20 Y8.35 E46.73834
G0 F9000 X9.39 Y7.97
G1 F1200 X-2.08 Y-3.49 E47.54761
G0 F9000 X-1.70 Y-3.68
G1 F1200 X9.58 Y7.60 E48.34347
G0 F9000 X9.77 Y7.23
G1 F1200 X-1.36 Y-3.90 E49.12861
G0 F9000 X-1.01 Y-4.12
G1 F1200 X9.97 Y6.85 E49.90313
G0 F9000 X10.16 Y6.48
G1 F1200 X-0.67 Y-4.35 E50.66697
G0 F9000 X-0.33 Y-4.57
G1 F1200 X10.35 Y6.11 E51.42015
G0 F9000 X10.54 Y5.73
G1 F1200 X0.02 Y-4.79 E52.16267
G0 F9000 X0.36 Y-5.01
G1 F1200 X10.73 Y5.36 E52.89458
G0 F9000 X10.92 Y4.99
G1 F1200 X0.70 Y-5.24 E53.61576
G0 F9000 X1.05 Y-5.46
G1 F1200 X11.12 Y4.61 E54.32625
G0 F9000 X11.31 Y4.24
G1 F1200 X1.39 Y-5.68 E55.02606
G0 F9000 X1.73 Y-5.90
G1 F1200 X11.50 Y3.86 E55.71514
G0 F9000 X11.96 Y3.76
G1 F1200 X4.66 Y-3.54 E56.23008
G0 F9000 X4.64 Y-3.56
G1 F1200 X2.08 Y-6.13 E56.41109
G0 F9000 X2.42 Y-6.35
G1 F1200 X4.81 Y-3.95 E56.58004
G0 F9000 X4.99 Y-4.35
G1 F1200 X2.76 Y-6.57 E56.73692
G0 F9000 X3.11 Y-6.79
G1 F1200 X5.16 Y-4.74 E56.88170
G0 F9000 X5.33 Y-5.14
G1 F1200 X3.45 Y-7.01 E57.01434
G0 F9000 X3.79 Y-7.24
G1 F1200 X5.50 Y-5.53 E57.13492
G0 F9000 X5.67 Y-5.92
G1 F1200 X4.14 Y-7.46 E57.24344
G0 F9000 X4.48 Y-7.68
G1 F1200 X5.84 Y-6.32 E57.33989
G0 F9000 X6.02 Y-6.71
G1 F1200 X4.82 Y-7.91 E57.42427
G0 F9000 X5.16 Y-8.13
G1 F1200 X6.19 Y-7.10 E57.49652
G0 F9000 X6.36 Y-7.50
G1 F1200 X5.51 Y-8.35 E57.55670
G0 F9000 X5.85 Y-8.57
G1 F1200 X6.53 Y-7.89 E57.60475
G0 F9000 X6.70 Y-8.28
G1 F1200 X6.37 Y-8.91 E57.64067
G1 X6.96 Y-8.88 E57.66453
G1 X6.88 Y-9.24 E57.68319
G0 F9000 X4.97 Y-3.74
G0 X6.48 Y-3.41
G1 F1200 X13.37 Y3.47 E58.16907
G0 F9000 X13.84 Y3.38
G1 F1200 X7.09 Y-3.38 E58.64532
G0 F9000 X7.70 Y-3.33
G1 F1200 X14.31 Y3.28 E59.11194
G0 F9000 X14.78 Y3.18
G1 F1200 X8.30 Y-3.29 E59.56882
G0 F9000 X8.91 Y-3.25
G1 F1200 X15.25 Y3.09 E60.01610
G0 F9000 X15.72 Y2.99
G1 F1200 X9.52 Y-3.21 E60.45369
G0 F9000 X10.12 Y-3.17
G1 F1200 X16.19 Y2.89 E60.88161
G0 F9000 X16.66 Y2.80
G1 F1200 X10.73 Y-3.13 E61.29993
G0 F9000 X11.34 Y-3.09
G1 F1200 X17.13 Y2.70 E61.70855
G0 F9000 X17.60 Y2.61
G1 F1200 X11.94 Y-3.05 E62.10751
G0 F9000 X12.55 Y-3.01
G1 F1200 X18.07 Y2.51 E62.49683
G0 F9000 X18.54 Y2.41
G1 F1200 X13.15 Y-2.97 E62.87649
G0 F9000 X13.76 Y-2.93
G1 F1200 X19.00 Y2.32 E63.24645
G0 F9000 X19.48 Y2.22
G1 F1200 X14.37 Y-2.88 E63.60677
G0 F9000 X14.97 Y-2.84
G1 F1200 X19.94 Y2.12 E63.95740
G0 F9000 X20.41 Y2.03
G1 F1200 X15.58 Y-2.80 E64.29836
G0 F9000 X16.19 Y-2.76
G1 F1200 X20.88 Y1.93 E64.62969
G0 F9000 X21.35 Y1.84
G1 F1200 X16.79 Y-2.72 E64.95131
G0 F9000 X17.40 Y-2.68
G1 F1200 X21.82 Y1.74 E65.26327
G0 F9000 X22.29 Y1.64
G1 F1200 X18.01 Y-2.64 E65.56560
G0 F9000 X18.61 Y-2.60
G1 F1200 X22.76 Y1.55 E65.85823
G0 F9000 X23.23 Y1.45
G1 F1200 X19.22 Y-2.56 E66.14119
G0 F9000 X19.83 Y-2.52
G1 F1200 X23.70 Y1.36 E66.41453
G0 F9000 X24.17 Y1.26
G1 F1200 X20.43 Y-2.48 E66.67816
G0 F9000 X21.04 Y-2.44
G1 F1200 X24.64 Y1.16 E66.93212
G0 F9000 X25.11 Y1.07
G1 F1200 X21.65 Y-2.40 E67.17645
G0 F9000 X22.25 Y-2.36
G1 F1200 X25.58 Y0.97 E67.41112
G0 F9000 X28.11 Y0.11
G1 F1200 X25.77 Y-2.23 E67.57597
G0 F9000 X26.08 Y-2.48
G1 F1200 X27.85 Y-0.72 E67.70068
G0 F9000 X28.04 Y-1.09
G1 F1200 X26.39 Y-2.74 E67.81745
G0 F9000 X26.70 Y-3.00
G1 F1200 X28.24 Y-1.46 E67.92632
G0 F9000 X28.43 Y-1.83
G1 F1200 X27.00 Y-3.26 E68.02721
G0 F9000 X27.31 Y-3.52
G1 F1200 X28.63 Y-2.20 E68.12010
G0 F9000 X28.82 Y-2.57
G1 F1200 X27.62 Y-3.78 E68.20512
G0 F9000 X27.93 Y-4.03
G1 F1200 X29.02 Y-2.94 E68.28216
G0 F9000 X29.21 Y-3.31
G1 F1200 X28.23 Y-4.29 E68.35124
G0 F9000 X28.54 Y-4.55
G1 F1200 X29.41 Y-3.68 E68.41234
G0 F9000 X29.60 Y-4.05
G1 F1200 X28.85 Y-4.81 E68.46554
G0 F9000 X29.16 Y-5.07
G1 F1200 X29.80 Y-4.43 E68.51076
G0 F9000 X29.99 Y-4.80
G1 F1200 X29.62 Y-5.45 E68.54801
G1 X30.28 Y-5.35 E68.57725
G1 X30.23 Y-5.97 E68.59860
G1 X30.67 Y-6.09 E68.61199
G1 X30.69 Y-6.36 E68.62520
G0 F9000 X25.28 Y-2.15
G1 F1200 X28.67 Y1.24 E68.86442
G0 F9000 X29.24 Y2.37
G1 F1200 X24.68 Y-2.19 E69.18615
G0 F9000 X24.07 Y-2.23
G1 F1200 X29.80 Y3.50 E69.59044
G0 F9000 X29.15 Y3.98
G1 F1200 X22.86 Y-2.31 E70.03426
G0 F9000 X23.46 Y-2.27
G1 F1200 X30.36 Y4.63 E70.52113
G0 F9000 X25.57 Y1.14
G0 X12.90 Y3.57
G1 F1200 X5.88 Y-3.46 E71.01671
G0 F9000 X5.27 Y-3.50
G1 F1200 X12.43 Y3.66 E71.52200
G0 F9000 X-8.19 Y4.89
G0 X-10.22 Y4.77
G1 F1200 X-13.94 Y1.05 E71.78446
G0 F9000 X-14.23 Y1.33
G1 F1200 X-10.79 Y4.77 E72.02696
G0 F9000 X-11.35 Y4.77
G1 F1200 X-14.51 Y1.61 E72.24949
G0 F9000 X-14.79 Y1.89
G1 F1200 X-11.92 Y4.77 E72.45202
G0 F9000 X-12.49 Y4.77
G1 F1200 X-16.33 Y0.92 E72.72317
G0 F9000 X-16.61 Y1.21
G1 F1200 X-13.05 Y4.77 E72.97406
G0 F9000 X-13.62 Y4.77
G1 F1200 X-16.89 Y1.50 E73.20471
G0 F9000 X-17.17 Y1.78
G1 F1200 X-14.18 Y4.77 E73.41507
G0 F9000 X-14.75 Y4.77
G1 F1200 X-17.44 Y2.07 E73.60514
G0 F9000 X-18.98 Y1.10
G1 F1200 X-15.31 Y4.77 E73.86387
G0 F9000 X-15.88 Y4.77
G1 F1200 X-19.27 Y1.38 E74.10277
G0 F9000 X-19.55 Y1.66
G1 F1200 X-16.45 Y4.77 E74.32177
G0 F9000 X-17.01 Y4.77
G1 F1200 X-19.83 Y1.94 E74.52088
G0 F9000 X-21.38 Y0.97
G1 F1200 X-17.58 Y4.77 E74.78882
G0 F9000 X-18.14 Y4.77
G1 F1200 X-21.65 Y1.26 E75.03632
G0 F9000 X-21.93 Y1.55
G1 F1200 X-18.71 Y4.77 E75.26344
G0 F9000 X-19.27 Y4.77
G1 F1200 X-22.20 Y1.84 E75.47017
G0 F9000 X-22.48 Y2.12
G1 F1200 X-19.84 Y4.77 E75.65658
G0 F9000 X-20.41 Y4.77
G1 F1200 X-24.01 Y1.16 E75.91093
G0 F9000 X-24.30 Y1.44
G1 F1200 X-20.97 Y4.77 E76.14546
G0 F9000 X-21.54 Y4.77
G1 F1200 X-24.58 Y1.72 E76.36019
G0 F9000 X-24.86 Y2.00
G1 F1200 X-22.10 Y4.77 E76.55506
G0 F9000 X-22.67 Y4.77
G1 F1200 X-26.42 Y1.01 E76.82007
G0 F9000 X-26.70 Y1.30
G1 F1200 X-23.23 Y4.77 E77.06479
G0 F9000 X-23.80 Y4.77
G1 F1200 X-26.98 Y1.59 E77.28923
G0 F9000 X-27.26 Y1.87
G1 F1200 X-24.37 Y4.77 E77.49335
G0 F9000 X-24.93 Y4.77
G1 F1200 X-27.54 Y2.16 E77.67721
G0 F9000 X-27.82 Y2.45
G1 F1200 X-25.50 Y4.77 E77.84076
G0 F9000 X-26.06 Y4.77
G1 F1200 X-28.09 Y2.73 E77.98406
G0 F9000 X-28.37 Y3.02
G1 F1200 X-26.63 Y4.77 E78.10704
G0 F9000 X-27.19 Y4.77
G1 F1200 X-28.65 Y3.31 E78.20969
G0 F9000 X-28.93 Y3.60
G1 F1200 X-27.76 Y4.77 E78.29203
G0 F9000 X-28.33 Y4.77
G1 F1200 X-29.20 Y3.89 E78.35412
G0 F9000 X-29.48 Y4.17
G1 F1200 X-28.89 Y4.77 E78.39593
G0 F9000 X-29.46 Y4.77
G1 F1200 X-29.76 Y4.46 E78.41744
G0 F9000 X-24.99 Y1.85
G0 X-23.73 Y0.88
G1 F1200 X-23.24 Y1.36 E78.45149
G0 F9000 X-22.52 Y1.87
G0 X-20.03 Y1.85
G0 X-17.52 Y1.86
G0 X-15.03 Y1.85
G0 X-12.53 Y1.85
G0 X-9.51 Y-1.10
G0 X-11.82 Y-3.43
G0 X-14.29 Y-3.47
G0 X-16.77 Y-3.47
G0 X-19.28 Y-3.45
G0 X-21.82 Y-3.47
G0 X-23.05 Y-2.40
G1 F1200 X-22.98 Y-2.48 E78.45685
G0 F9000 X-22.78 Y-2.70
G1 F1200 X-23.58 Y-3.50 E78.51315
G0 F9000 X-23.30 Y-3.50
G1 F1200 X-22.65 Y-2.85 E78.55894
G0 F9000 X-22.51 Y-3.00
G1 F1200 X-22.73 Y-3.50 E78.59416
G1 X-22.25 Y-3.30 E78.62031
G0 F9000 X-21.32 Y-3.50
G1 F1200 X-20.39 Y-2.57 E78.68550
G0 F9000 X-20.12 Y-2.87
G1 F1200 X-20.75 Y-3.50 E78.73009
G0 F9000 X-20.18 Y-3.50
G1 F1200 X-19.84 Y-3.16 E78.75411
G0 F9000 X-18.99 Y-3.43
G1 F1200 X-17.99 Y-2.43 E78.82432
G0 F9000 X-17.72 Y-2.73
G1 F1200 X-18.49 Y-3.50 E78.87826
G0 F9000 X-17.92 Y-3.50
G1 F1200 X-17.39 Y-3.10 E78.91117
G1 X-17.50 Y-3.50 E78.93360
G1 X-16.80 Y-3.35 E78.94551
G1 X-16.30 Y-3.50 E78.97165
G0 F9000 X-16.23 Y-3.50
G1 F1200 X-15.34 Y-2.61 E79.03395
G0 F9000 X-15.07 Y-2.91
G1 F1200 X-15.66 Y-3.50 E79.07527
G0 F9000 X-15.09 Y-3.50
G1 F1200 X-14.80 Y-3.21 E79.09566
G0 F9000 X-13.95 Y-3.49
G1 F1200 X-12.95 Y-2.49 E79.16635
G0 F9000 X-12.68 Y-2.78
G1 F1200 X-13.40 Y-3.50 E79.21669
G0 F9000 X-12.83 Y-3.50
G1 F1200 X-12.28 Y-3.22 E79.24615
G1 X-12.26 Y-3.50 E79.25969
;LAYER:1
M126 T0 ; value = 127
G0 F9000 X-11.82 Y-3.52 Z0.57
;TYPE:WALL-INNER
G1 F1620 X-13.10 Y-2.13 E79.34439
G1 X-14.28 Y-3.58 E79.42855
G1 X-15.60 Y-2.13 E79.51615
G1 X-16.77 Y-3.58 E79.59992
G1 X-18.07 Y-2.15 E79.68661
G1 X-19.28 Y-3.55 E79.77017
G1 X-20.60 Y-2.14 E79.85693
G1 X-21.81 Y-3.57 E79.94093
G1 X-23.05 Y-2.19 E80.02409
G1 X-24.27 Y-3.52 E80.10538
G1 X-25.60 Y-2.20 E80.18952
G1 X-25.98 Y-2.62 E80.21504
G1 X-24.93 Y-3.64 E80.28071
G1 X-2.03 Y-3.64 E81.30913
G1 X7.53 Y-9.83 E81.82047
G1 X4.84 Y-3.67 E82.12246
G1 X25.61 Y-2.27 E83.05708
G1 X31.20 Y-6.97 E83.38505
G1 X31.20 Y-6.80 E83.39255
G1 X27.93 Y-0.57 E83.70863
G1 X31.13 Y5.84 E84.03042
G1 X25.57 Y1.12 E84.35799
G1 X11.60 Y3.98 E84.99847
G1 X8.28 Y10.44 E85.32446
G1 X2.38 Y4.91 E85.68781
G1 X-30.39 Y4.91 E87.15891
G1 X-26.25 Y0.62 E87.42638
G1 X-25.00 Y1.93 E87.50771
G1 X-23.70 Y0.65 E87.58962
G1 X-22.52 Y1.96 E87.66863
G1 X-21.25 Y0.64 E87.75063
G1 X-20.03 Y1.94 E87.83073
G1 X-18.72 Y0.64 E87.91318
G1 X-17.52 Y1.95 E87.99289
G1 X-16.25 Y0.64 E88.07478
G1 X-15.03 Y1.94 E88.15470
G1 X-13.75 Y0.66 E88.23608
G1 X-12.53 Y1.93 E88.31522
G1 X-9.43 Y-1.10 E88.50998
G1 X-11.82 Y-3.52 E88.66270
G0 F9000 X-9.51 Y-1.10
G0 X-9.24 Y1.78
G1 F1620 X-9.56 Y2.07 E88.68209
G1 X-9.81 Y2.44 E88.70209
G1 X-9.95 Y2.86 E88.72187
G1 X-9.99 Y3.30 E88.74191
G1 X-9.90 Y3.74 E88.76193
G1 X-9.71 Y4.14 E88.78191
G1 X-9.40 Y4.48 E88.80243
G1 X-9.03 Y4.72 E88.82230
G1 X-8.63 Y4.86 E88.84147
G1 X-8.19 Y4.90 E88.86138
G1 X-7.74 Y4.81 E88.88212
G1 X-7.34 Y4.61 E88.90204
G1 X-7.01 Y4.32 E88.92132
G1 X-6.77 Y3.96 E88.94128
G1 X-6.62 Y3.54 E88.96118
